X:364
T: ICH BIN EIN FEINER JAEGERSKNECHT
N: F0647
O: Europa, Mitteleuropa, Deutschland
R: Staende -, Jaeger - Lied
M: 2/4
L: 1/16
K: F
C2 | F2F2A2F2 | c2cAG4 |
F2EDC4 | c2cBA4 |
A3AG2A2B2A2 | G6z2 |
F2AB | c4c4f2d2 | c2A2c2z
c | B2G2A2cc | B2G2A2
FAc2AF | G4F4z2

@@@ Tune index: 5795
